X: 43050
T: Wind Off The Lake, The
R: jig
M: 6/8
K: Gmajor
G2B BAB|GBB BAG|F2A AFA|FAA AFD|
GBB BAB|GBB BAB|def gdB|AGF G2D|
B3 BAB|GBB BAG|F3 A3|F3 AFA|
B3 BAB|GBB BAB|def gdB|AGF Gfg||
a3 agf|g3 gfe|dB/c/d gdB|ABA Afg|
a3 agf|g3 gfe|dB/c/d ABc|AGF Gfg|
a3 agf|g3 gfe|dB/c/d gdB|ABA Afg|
a3 agf|g3 gfe|dB/c/d ABc|AGF G2d||

